X: 10472
T: FEMALE RAKE
C:
%R: jig
B: Elias Howe "The Musician's Companion" Part 1 1842 p.47 #2
S: http://imslp.org/wiki/The_Musician's_Companion_(Howe,_Elias)
Z: 2015 John Chambers <jc:trillian.mit.edu>
M: 6/8
L: 1/8
K: D
% - - - - - - - - - - - - - - - - - - - - - - - - -
|:\
ded dAF | GDA FDE | FGA Bcd | efd c2A |\
ded dAF | GDA FDE | FGA Bcd | ecA d3 :|
|:\
efd ecA | fdB ecA | e2f gfe | dcB A2F |\
GFG g2G | FEF f2F | EFG AFD | ecA d3 :|
% - - - - - - - - - - - - - - - - - - - - - - - - -
